app/images/social/instagram.svg

<svg width="15" height="14" viewBox="0 0 15 14" fill="none" xmlns="http://www.w3.org/2000/svg">
<path d="M8 3.40625C6 3.40625 4.40625 5.03125 4.40625 7C4.40625 9 6 10.5938 8 10.5938C9.96875 10.5938 11.5938 9 11.5938 7C11.5938 5.03125 9.96875 3.40625 8 3.40625ZM8 9.34375C6.71875 9.34375 5.65625 8.3125 5.65625 7C5.65625 5.71875 6.6875 4.6875 8 4.6875C9.28125 4.6875 10.3125 5.71875 10.3125 7C10.3125 8.3125 9.28125 9.34375 8 9.34375ZM12.5625 3.28125C12.5625 2.8125 12.1875 2.4375 11.7188 2.4375C11.25 2.4375 10.875 2.8125 10.875 3.28125C10.875 3.75 11.25 4.125 11.7188 4.125C12.1875 4.125 12.5625 3.75 12.5625 3.28125ZM14.9375 4.125C14.875 3 14.625 2 13.8125 1.1875C13 0.375 12 0.125 10.875 0.0625C9.71875 0 6.25 0 5.09375 0.0625C3.96875 0.125 3 0.375 2.15625 1.1875C1.34375 2 1.09375 3 1.03125 4.125C0.96875 5.28125 0.96875 8.75 1.03125 9.90625C1.09375 11.0312 1.34375 12 2.15625 12.8438C3 13.6562 3.96875 13.9062 5.09375 13.9688C6.25 14.0312 9.71875 14.0312 10.875 13.9688C12 13.9062 13 13.6562 13.8125 12.8438C14.625 12 14.875 11.0312 14.9375 9.90625C15 8.75 15 5.28125 14.9375 4.125ZM13.4375 11.125C13.2188 11.75 12.7188 12.2188 12.125 12.4688C11.1875 12.8438 9 12.75 8 12.75C6.96875 12.75 4.78125 12.8438 3.875 12.4688C3.25 12.2188 2.78125 11.75 2.53125 11.125C2.15625 10.2188 2.25 8.03125 2.25 7C2.25 6 2.15625 3.8125 2.53125 2.875C2.78125 2.28125 3.25 1.8125 3.875 1.5625C4.78125 1.1875 6.96875 1.28125 8 1.28125C9 1.28125 11.1875 1.1875 12.125 1.5625C12.7188 1.78125 13.1875 2.28125 13.4375 2.875C13.8125 3.8125 13.7188 6 13.7188 7C13.7188 8.03125 13.8125 10.2188 13.4375 11.125Z" fill="#707070"/>
</svg>

<svg width="15" height="14" fill="none" xmlns="http://www.w3.org/2000/svg"><path d="M8 3.406C6 3.406 4.406 5.031 4.406 7 4.406 9 6 10.594 8 10.594A3.594 3.594 0 0011.594 7c0-1.969-1.625-3.594-3.594-3.594zm0 5.938A2.34 2.34 0 015.656 7c0-1.281 1.032-2.313 2.344-2.313A2.307 2.307 0 0110.313 7c0 1.313-1.032 2.344-2.313 2.344zm4.563-6.063a.84.84 0 00-.844-.844.84.84 0 00-.844.844.84.84 0 00.844.844.84.84 0 00.844-.844zm2.374.844C14.876 3 14.626 2 13.813 1.187 13 .375 12 .125 10.874.063 9.719 0 6.25 0 5.094.063 3.969.126 3 .376 2.156 1.188 1.344 2 1.094 3 1.031 4.126c-.061 1.155-.061 4.624 0 5.78.063 1.125.313 2.094 1.125 2.938.844.812 1.813 1.062 2.938 1.125 1.156.062 4.625.062 5.781 0 1.125-.063 2.125-.313 2.938-1.125.812-.844 1.062-1.813 1.124-2.938.063-1.156.063-4.625 0-5.781zm-1.5 7c-.218.625-.718 1.094-1.312 1.344-.938.375-3.125.281-4.125.281-1.031 0-3.219.094-4.125-.281a2.37 2.37 0 01-1.344-1.344C2.156 10.219 2.25 8.031 2.25 7c0-1-.094-3.188.281-4.125a2.41 2.41 0 011.344-1.313c.906-.375 3.094-.28 4.125-.28 1 0 3.188-.095 4.125.28.594.22 1.063.72 1.313 1.313.374.938.28 3.125.28 4.125 0 1.031.095 3.219-.28 4.125z" fill="#707070"/></svg>
